Resources/Public/Icons/ContentElements/texticon.svg

<svg xmlns="http://www.w3.org/2000/svg" viewBox="0 0 16 16"><path fill="#FFF" d="M1 1h14v14H1V1z"/><path fill="#999" d="M1 1v14h14V1H1zm1 1h12v12H2V2z"/><path fill="#B9B9B9" d="M5 9h6v1H5zm0 2h6v1H5z"/><path fill="#59F" d="M9.5 8h-3c-.3 0-.5-.2-.5-.5v-3c0-.3.2-.5.5-.5h3c.3 0 .5.2.5.5v3c0 .3-.2.5-.5.5z"/><path opacity=".25" d="M9 5v2H7V5h2m.5-1h-3c-.3 0-.5.2-.5.5v3c0 .3.2.5.5.5h3c.3 0 .5-.2.5-.5v-3c0-.3-.2-.5-.5-.5z"/></svg>

<?xml version="1.0" encoding="utf-8"?>
<!-- Generator: Adobe Illustrator 19.1.1, SVG Export Plug-In . SVG Version: 6.00 Build 0)  -->
<svg version="1.1" xmlns="http://www.w3.org/2000/svg" xmlns:xlink="http://www.w3.org/1999/xlink" x="0px" y="0px"
	 viewBox="0 0 16 16" enable-background="new 0 0 16 16" xml:space="preserve">
<path fill="#FFFFFF" d="M1,1h14v14H1V1z"/>
<path fill="#999999" d="M1,1v14h14V1H1z M2,2h12v12H2V2z"/>
<rect x="5" y="9" fill="#B9B9B9" width="6" height="1"/>
<rect x="5" y="11" fill="#B9B9B9" width="6" height="1"/>
<path fill="#5599FF" d="M9.5,8h-3C6.2,8,6,7.8,6,7.5v-3C6,4.2,6.2,4,6.5,4h3C9.8,4,10,4.2,10,4.5v3C10,7.8,9.8,8,9.5,8z"/>
<path opacity="0.25" d="M9,5v2H7V5H9 M9.5,4h-3C6.2,4,6,4.2,6,4.5v3C6,7.8,6.2,8,6.5,8h3C9.8,8,10,7.8,10,7.5v-3C10,4.2,9.8,4,9.5,4
	L9.5,4z"/>
</svg>
